X:1
T:Domine ante te
T:Domine ante te
T:Anonymous
T:Source : Il primo libro di madrigali a 3 voci---Venetia---A.Gardano---1559. Editor : André Vierendeels (26/10/14).
T:Notes : Original clefs : G2, C3, F3 Original note values have been halved Editorial accidentals above the staff Square brackets indicate ligatures
C:Anonymous
%%score [ 1 [ 2 3 ] ]
L:1/8
Q:1/4=100
M:2/2
K:F
V:1 treble nm="Canto" snm="C"
V:2 treble nm="Alto" snm="A"
V:3 treble-8 nm="Tenor" snm="T"
V:1
 c8 | d4 c4 | F3 G AB cB/c/ | dc f2 ed cB | A2 c4 BA | GA Bc de f2- | f2 ed c2 d2 | G2 c3 B GA | %8
w: Do-|mi- ne,|an- * * * * * *|* * * te _ _ _|te, an- * *||* * * * te|te, an- * * *|
 BA GF G2 G2 | F4 z4 | z8 | F3 G AB c2- | cB GA Bc d2- |"^-natural" dc c4 B2 | c8- | c8 | z8 | %17
w: * * * * * te|te,||an- * * * *||* * * te-|te,|_||
 z4 z2 c2 | c2 c2 f2 f2 | e2 f3 e cd | e2 d4 cB | AG AB c3 B | cd ec de f2- | f2 ed f2 e2- | %24
w: o-|mne de- si- de-|ri- um _ _ _|_ me- * *||||
 ed cB AB cB | G2 A3 G B2- | BA GF E2 A2- | AG F4 E2 | F8- | F8 | z8 | z2 c2 f4- | f2 f2 e2 d2 | %33
w: ||||um|_||et ge-|* mi- tus me-|
 c3 d e2 f2- | fe d3 c f2- | fe/d/ e2 f4- | f4 z4 | z8 | z4 z2 A2 | d6 d2 | c4 B4 | A4 z2 c2 | %42
w: us, _ _ me-||* * * * us,|_||et|ge- mi-|tus me-|us ad|
 c2 d2 c2 f2- | fe/d/ e2 c2 d2 | GA Bc de fd | ec g3 f ed | cB AG FD d2- | dc c4 B2 | c4 F4- | %49
w: te non est ab-|* * * * scon- di-|tus, _ _ _ _ _ _ _|_ _ ab- * * *||* * scon- *|di- tus,|
 F4 z4 | z8 | z8 | z8 | z2 A2 A2 B2 | c2 A2 B2 B2 | A3 B c2 d2- | dc/B/ c2 A2 B2 | G2 c3 B/A/ B2 | %58
w: _||||ad te non|est ab- scon- di-|tus, _ _ ab-|* * * * scon- di-|tus, ab- * * *|
 G2 A2 F2 B2- | BA GF GE A2- | AG F3 E/D/ E2 | F8 |] %62
w: scon- di- tus, ab-|* * * * * * scon-|* * * * * di-|tus.|
V:2
 z8 | z8 | z4 F4- | F4 G4 | F4 C3 D | EF G4 FE | D2 F4 ED | E3 D EF G2- | G2 F4 E2 | F2 C3 D ED | %10
w: ||Do-|* mi-|ne, an- *||||* * te|te, an- * * *|
 EF G4 FE | D2 C2 z2 C2 | E3 F G2 F2- | FE C2 D4 | C8 | z4 z2 C2 | C2 C2 F2 F2 | E2 F4 ED | %18
w: |te te, an-||* * * te|te,|o-|mne de- si- de-|ri- um _ _|
 C2 E2 D4 | A8 | G4 F4- | F2 ED C3 D | EF GE FG A2- | A2 GF A2 G2- | GF ED C4 | C4 C2 D2- | %26
w: _ me- um,|o-|mne de-|||* * * * si-||de- ri- um|
 DC B,A, G,2 C2- | CA, B,2 G,4 | F,4 z2 C2 | D6 D2 | E4 F3 E | FG A4 GF | B2 A4 G2 | A4 z2 F2 | %34
w: _ _ _ _ _ me-||um,- et|ge- mi-|tus me- *|||us, et|
 B6 B2 | A2 G2 F3 E | DC C4 B,2 | C4 z2 A,2- | A,B, CD E2 F2- | FE DC D2 G2- | GF F4 E2 | F8 | %42
w: ge- mi-|tus me- * *||us, me-||||us|
 z4 z2 F2 | F2 G2 F2 B2- | B2 AG FG AF | G3 F ED C2 | F3 E DC B,2 | C2 C2 D4 | z2 C2 C2 D2- | %49
w: ad|te non est ab-||||scon- di- tus,|ad te non|
 DE F4 ED | E2 G3 F ED | CD EF G2 F2- | F2 E2 F4 | z2 C2 D2 D2 | C2 F3 E/D/ E2 | F6 D2 | E4 F2 D2 | %57
w: _ _ _ _ _|est ab- * * *|* * * * * scon-|* di- tus,|ad te non|est ab- * * *|scon- di-|tus, ab- scon|
 E2 C2 D4 | C4 D4 | B,2 C3 B,A,G, | A,2 B,2 G,4 | F,8 |] %62
w: di- tus, ab-|* scon-||* * di-|tus.|
V:3
 z8 | z8 | z8 | z8 | z8 | z8 | z8 | c8 | d4 c4 | F3 G AB c2- | c2 BA G2 B2- | B2 AG F4 | %12
w: |||||||Do-|mi- ne|an- * * * *|* * * te te,|_ _ _ _|
 z2 c2 G2 B2 | A4 G4 | C4 z2 C2 | C2 C2 F2 F2 | E2 F3 G AB | c2 d4 cB | AG c4 B2 | c2 d3 c AB | %20
w: an- * *|* te|te, o-|mne de- si- de-|||* * * ri-|um me- * * *|
 c2 B4 AG | F8 | z8 | z4 z2 C2 | C2 C2 F2 F2 | E2 F3 E DC | B,4 C4 | D4 C4 | F4 z2 F2 | B6 B2 | %30
w: * um, _ _|_||o-|mne de- si- de-|ri- um _ _ _|_ me-|* um,|_ et|ge- mi-|
 A2 G2 F2 B2- | B2 A2 d4- | d2 d2 c2 B2 | A8 | z8 | C4 F4- | F2 F2 E2 D2 | C3 D E2 F2- | %38
w: tus me- us, ge-||* mi- tus me-|us,||et ge-|* mi- tus me-||
 FG AB c2 F2 | B6 B2 | A4 G4 | F8- | F8 | z8 | z8 | z8 | z8 | z2 F2 F2 G2 | F3 G A2 B2- | %49
w: * * * * us, et|ge- mi-|tus me-|us|_|||||ad te non|est _ _ ab-|
 B2 AG F2 G2 | CD EF G2 A2- | AB cA BA GF | G2 G2 F4 | z2 F2 F2 G2 | A2 F2 G2 G2 | F3 G A2 B2- | %56
w: * * * scon- di-|tus, _ _ _ _ ab-||scon- di- tus,|ad te non|est ab- scon- di-|tus, _ _ ab-|
 BA/G/ A2 F2 G2 | C2 A3 G/F/ G2 | E2 F2 D2 G2- | GF ED C2 F2- | F2 B,2 C4 | F8 |] %62
w: * * * * scon- di-|tus, ab- * * *|scon di- tus, ab-|* * * * * scon-|* * di-|tus.|

